public/payments/crypto/tether.svg

<svg width="17" height="21" viewBox="0 0 17 21" fill="none" xmlns="http://www.w3.org/2000/svg">
<path fill-rule="evenodd" clip-rule="evenodd" d="M3.74636 4.06385L1.01124 9.78743C1.00084 9.80872 0.997539 9.83277 1.00183 9.85606C1.00613 9.87935 1.01779 9.90066 1.03511 9.91687L8.422 16.9688C8.44298 16.9888 8.47093 17 8.5 17C8.52907 17 8.55702 16.9888 8.578 16.9688L15.9649 9.91731C15.9822 9.9011 15.9939 9.87979 15.9982 9.8565C16.0025 9.83321 15.9992 9.80916 15.9888 9.78787L13.2536 4.06429C13.2448 4.04507 13.2306 4.02878 13.2127 4.01738C13.1949 4.00598 13.1741 3.99995 13.1529 4.00001H3.848C3.82669 3.99974 3.80575 4.00563 3.78771 4.01696C3.76967 4.02829 3.75531 4.04457 3.74636 4.06385Z" fill="#50AF95"/>
<path fill-rule="evenodd" clip-rule="evenodd" d="M9.4156 10.3004C9.36446 10.3041 9.10024 10.3193 8.51087 10.3193C8.0421 10.3193 7.70927 10.3058 7.5925 10.3004C5.78091 10.2235 4.42871 9.91919 4.42871 9.55482C4.42871 9.19046 5.78091 8.88655 7.5925 8.80841V9.99733C7.71097 10.0056 8.05019 10.0249 8.51896 10.0249C9.08149 10.0249 9.36318 10.0023 9.41389 9.99774V8.80923C11.2216 8.88696 12.5709 9.19128 12.5709 9.55482C12.5709 9.91837 11.2221 10.2227 9.41389 10.3L9.4156 10.3004ZM9.4156 8.68627V7.62237H11.9384V6H5.06965V7.62237H7.59207V8.68586C5.54183 8.77674 4 9.16866 4 9.63831C4 10.108 5.54183 10.4995 7.59207 10.5908V14H9.41517V10.5895C11.4607 10.4986 13 10.1071 13 9.6379C13 9.16866 11.462 8.77716 9.41517 8.68586L9.4156 8.68627Z" fill="white"/>
</svg>

<svg xmlns="http://www.w3.org/2000/svg" width="17" height="21" fill="none"><path fill="#50AF95" fill-rule="evenodd" d="M3.75 4.06 1 9.8a.11.11 0 0 0 .03.13l7.38 7.05a.11.11 0 0 0 .16 0l7.38-7.05a.11.11 0 0 0 .03-.13l-2.74-5.73a.11.11 0 0 0-.1-.06h-9.3a.11.11 0 0 0-.1.06Z" clip-rule="evenodd"/><path fill="#fff" fill-rule="evenodd" d="M9.42 10.3a14.64 14.64 0 0 1-1.83 0c-1.8-.08-3.16-.38-3.16-.75 0-.36 1.35-.66 3.16-.74V10a14.1 14.1 0 0 0 1.82 0V8.8c1.81.09 3.16.4 3.16.75 0 .37-1.35.67-3.16.75Zm0-1.61V7.62h2.52V6H5.07v1.62h2.52V8.7C5.54 8.78 4 9.17 4 9.64s1.54.86 3.6.95V14h1.82v-3.41c2.04-.1 3.58-.48 3.58-.95s-1.54-.86-3.58-.95Z" clip-rule="evenodd"/></svg>
